app/dist/common/images/pyrum-innovations-ag.svg

<svg height="18" viewBox="0 0 18 18" width="18" xmlns="http://www.w3.org/2000/svg"><path d="m0 0h18v18h-18z" fill="#f0f3fa"/><path d="m11 12h.43c1.97 0 2.57-1.18 2.57-2.63v-.74c0-1.45-.6-2.63-2.57-2.63h-1.43v1h1.21c1.4 0 1.79.7 1.79 1.74v.52c0 1.04-.38 1.74-1.79 1.74h-.21z" fill="#abc832"/><path d="m9 6.49 1.44-1.43c.1-.1.33-.06.43.04l.02.02a.4.4 0 0 1 .11.29c0 .07-.03.14-.08.19l-.92.89.9.94a.31.31 0 0 1 0 .45l-.02.03a.32.32 0 0 1 -.45 0z" fill="#abc832"/><g fill="#a69f9c"><path d="m9 11.49-1.44-1.43c-.1-.1-.33-.06-.43.04l-.02.02a.4.4 0 0 0 -.11.29c0 .07.03.14.08.19l.92.89-.9.94a.31.31 0 0 0 0 .45l.02.03c.12.12.33.12.45 0z"/><path d="m8 6h-1.43c-1.97 0-2.57 1.18-2.57 2.63v.74c0 1.45.6 2.63 2.57 2.63h1.43v-1h-1.21c-1.4 0-1.79-.7-1.79-1.74v-.52c0-1.04.38-1.74 1.79-1.74h1.21z"/></g></svg>

<!-- by TradingView --><svg width="18" height="18" viewBox="0 0 18 18" xmlns="http://www.w3.org/2000/svg"><path fill="#F0F3FA" d="M0 0h18v18H0z"/><path d="M11 12h.43C13.4 12 14 10.82 14 9.37v-.74C14 7.18 13.4 6 11.43 6H10v1h1.21c1.4 0 1.79.7 1.79 1.74v.52c0 1.04-.38 1.74-1.79 1.74H11v1Z" fill="#ABC832"/><path d="m9 6.49 1.44-1.43c.1-.1.33-.06.43.04l.02.02a.4.4 0 0 1 .11.29c0 .07-.03.14-.08.19l-.92.89.9.94a.31.31 0 0 1 0 .45l-.02.03a.32.32 0 0 1-.45 0L9 6.49Z" fill="#ABC832"/><path d="m9 11.49-1.44-1.43c-.1-.1-.33-.06-.43.04l-.02.02a.4.4 0 0 0-.11.29c0 .07.03.14.08.19l.92.89-.9.94a.31.31 0 0 0 0 .45l.02.03c.12.12.33.12.45 0L9 11.49Z" fill="#A69F9C"/><path d="M8 6H6.57C4.6 6 4 7.18 4 8.63v.74C4 10.82 4.6 12 6.57 12H8v-1H6.79C5.39 11 5 10.3 5 9.26v-.52C5 7.7 5.38 7 6.79 7H8V6Z" fill="#A69F9C"/></svg>
